assets/features/payment-flow/linkaja.svg

<svg width="40" height="40" viewBox="0 0 40 40" fill="none" xmlns="http://www.w3.org/2000/svg">
<rect width="40" height="40" rx="8" fill="#E9232A"/>
<path d="M8.79955 30.7664C8.34321 30.5278 7.98367 30.3188 8.00057 30.3018C8.05886 30.2434 10.2424 29.7757 11.7672 29.4953C15.0668 28.8883 18.9898 28.4024 22.8973 28.1169C24.5065 27.9993 30.3283 27.9954 31.338 28.1112L32 28.1872L31.2538 28.1988C29.9291 28.2195 26.8913 28.4328 24.511 28.6723C20.0056 29.1256 14.9969 29.9616 11.3735 30.8648C10.6334 31.0492 9.9383 31.2 9.82859 31.2C9.71899 31.2 9.25589 31.0049 8.79955 30.7664ZM15.0985 26.2154C15.0308 26.0277 15.314 25.9437 15.4375 25.8903C15.9922 25.6516 16.3826 25.2627 16.5132 24.8184C16.5756 24.6058 16.7661 23.4041 16.9362 22.148C17.1063 20.8919 17.2593 19.9203 17.276 19.8633C17.2884 19.8211 17.3219 19.6712 17.5014 19.6551C17.9597 19.6507 18.3 19.6565 18.7697 19.6565C19.0291 19.6315 18.9781 19.9164 18.9577 20.099C18.9373 20.3294 18.8756 20.7746 18.8035 21.3174C18.7157 21.9798 18.5845 22.9696 18.5118 23.5171C18.3487 24.7477 18.2582 25.1266 17.9761 25.7605C17.6403 26.5147 17.1271 26.953 16.1968 27.2648C16.009 27.3239 15.4702 27.5078 15.4116 27.3443C15.29 26.9531 15.2037 26.613 15.0985 26.2154ZM25.7818 25.8028C25.1619 25.5516 25.1911 24.5816 25.8414 24.1837C26.253 23.9318 26.8312 23.9746 27.1284 24.2728C27.8605 25.0076 26.7839 26.2085 25.7818 25.8028ZM21.0959 25.2233C19.2732 24.9109 19.2854 22.7299 19.6937 21.4836C20.205 20.041 21.451 19.6219 22.4752 19.5853C23.3394 19.5556 24.5376 19.7169 24.8383 19.9034C24.9215 19.9549 24.8823 20.455 24.6503 22.3089C24.4892 23.5962 24.313 24.7031 24.2587 24.7687C23.9702 25.1177 22.0367 25.3956 21.0959 25.2233ZM22.686 23.4973C22.8816 22.7667 22.9642 22.1071 23.1041 21.3365C23.0867 21.0708 22.64 21.069 22.5263 21.0684C21.9345 21.0684 21.585 21.4017 21.3997 22.1429C21.1457 23.1595 21.411 23.7258 22.1413 23.7258C22.3722 23.7043 22.6131 23.7172 22.686 23.4973ZM9.36467 24.6348C9.86291 23.4133 11.864 19.0395 12.3443 18.1338C12.4351 17.9079 12.6742 17.8634 12.8379 17.8476C13.3085 17.826 13.7154 17.8317 14.1287 17.8347C14.5546 17.8385 14.5609 17.9885 14.6157 18.3062C14.6827 18.6227 15.5136 23.6014 15.7017 24.7966C15.7257 24.995 15.7741 25.0567 15.5167 25.0572C15.16 25.0582 14.3015 25.1048 14.0102 25.0827C13.9171 25.0705 13.8565 25.0093 13.842 24.9403C13.8154 24.8121 13.7854 24.5921 13.7649 24.3626L13.7118 23.7673H12.6426H11.5733L11.3396 24.3398C11.2564 24.5434 11.1655 24.7442 11.0978 24.8776C11.0504 24.9998 10.9797 25.0561 10.8739 25.0793C10.6122 25.077 9.68457 25.1115 9.33579 25.0807C9.16329 25.0011 9.31929 24.746 9.36467 24.6348ZM13.5233 22.1096C13.493 21.788 13.2885 20.1291 13.2404 19.8839C13.2278 19.8576 13.2219 19.8662 13.2089 19.8818C13.0826 20.072 12.399 21.7558 12.2827 22.1468C12.2686 22.2007 12.3036 22.2205 12.3544 22.2161C12.5278 22.2042 13.2364 22.1909 13.452 22.1826C13.5134 22.1779 13.5195 22.1563 13.5233 22.1096ZM25.8641 22.9162C25.8917 22.6992 25.9523 22.1106 25.9987 21.6082C26.0451 21.1057 26.1193 20.3209 26.1637 19.8642C26.1974 19.5175 26.2271 19.1811 26.2399 19.0041C26.2658 18.8453 26.457 18.8266 26.5826 18.8254C27.0015 18.8298 27.3958 18.8049 27.7726 18.8398C27.9506 18.8581 28.025 18.8976 28.0257 19.0039C27.8559 19.8783 27.2455 22.8953 27.1986 23.0822C27.158 23.2433 27.1416 23.2908 26.8966 23.3047C26.5964 23.2999 26.346 23.3156 26.0415 23.3141C25.8668 23.3118 25.8201 23.2604 25.8641 22.9162ZM17.4124 18.4338C17.4124 17.9008 17.7541 17.4946 18.1821 17.3236C18.5519 17.1936 18.9663 17.1941 19.187 17.4471C19.5786 17.9039 19.3216 18.5789 18.8642 18.9306C18.2781 19.3352 17.4219 19.0961 17.4124 18.4338ZM27.9124 17.3104C27.7845 17.025 27.3738 16.1244 26.9999 15.3091C26.6261 14.4938 26.3399 13.7751 26.364 13.7119C26.3882 13.6488 26.8049 13.1292 27.2901 12.5575L28.0798 11.6268C28.1314 11.5642 28.1907 11.4874 28.2623 11.4865C28.7383 11.4889 29.2314 11.5174 29.6856 11.5129C30.0239 11.51 30.1941 11.488 29.9431 11.7436C29.7825 11.9432 29.4658 12.3087 29.1037 12.7097C28.5803 13.2892 28.1521 13.7788 28.1521 13.7978C28.1521 13.8167 28.5445 14.6821 29.0242 15.7209C29.4012 16.537 29.7125 17.267 29.8174 17.5719C29.8622 17.6754 29.8229 17.764 29.727 17.7882C29.6001 17.8178 29.3716 17.8295 28.9786 17.8295H28.3901C28.2463 17.8446 28.1405 17.8193 28.0852 17.6958L27.9124 17.3104ZM10.2976 16.7028C9.76795 16.4379 9.5176 16.1027 9.47192 15.5974C9.44457 15.2946 9.9383 11.2236 10.1569 9.92919C10.2103 9.62521 10.2334 9.60784 10.5238 9.60784H11.0952C11.3953 9.60784 11.6685 9.6028 11.8404 9.61257C12.0752 9.61607 12.0322 9.76451 12.0143 9.94235C11.9739 10.3393 11.8482 11.1992 11.6903 12.3064C11.4102 14.2709 11.3389 14.9641 11.4059 15.071C11.4843 15.1958 11.6834 15.2163 13.0031 15.2362L14.1835 15.254C14.4646 15.2382 14.5228 15.3075 14.495 15.5608C14.4262 15.9802 14.3885 16.3143 14.32 16.6901C14.273 16.9245 14.1222 16.8632 13.8873 16.8776L12.5073 16.8968C10.7378 16.9191 10.7284 16.9182 10.2976 16.7028ZM23.909 16.8537C23.8911 16.8195 23.9405 16.343 24.0187 15.7949C24.0969 15.2468 24.2603 14.0695 24.3817 13.1789C24.7264 10.6503 24.8396 9.88848 24.8877 9.59705C24.9384 9.25689 24.9387 9.2757 25.2708 9.2757H25.7974C26.0029 9.2757 26.1633 9.27303 26.2871 9.27703C26.76 9.29245 26.6998 9.25154 26.5805 9.98655C26.5354 10.2643 26.3852 11.4868 26.2467 12.5145C25.8981 15.1025 25.6693 16.6894 25.6274 16.8122C25.5881 16.9272 23.9678 16.9664 23.909 16.8537ZM14.9118 16.6568C15.1314 14.8073 15.3412 13.4088 15.5852 11.6878C15.6035 11.4818 15.8052 11.4579 16.041 11.4576C16.3092 11.4574 16.5818 11.4538 16.8372 11.4623C17.3318 11.464 17.4619 11.5305 17.4106 11.8626C17.1915 13.4783 16.9206 14.9203 16.6362 16.563C16.583 16.8412 16.5182 16.8329 16.2533 16.8329C15.945 16.834 15.3978 16.8444 15.1182 16.8365C14.9546 16.8076 14.9175 16.789 14.9118 16.6568ZM18.4032 12.5164C18.5389 11.8013 18.6329 11.6896 18.83 11.56C19.0733 11.4001 20.8701 11.2335 21.4905 11.3133C21.5771 11.3257 21.6596 11.3413 21.7381 11.3601C23.5556 11.7933 23.2731 13.8587 23.1549 14.8088C23.0304 15.7166 22.9082 16.5434 22.8833 16.6461C22.8399 16.8249 22.8012 16.8329 21.9781 16.8329C21.7016 16.8329 21.5571 16.8234 21.3997 16.8086C21.1455 16.7919 21.1219 16.7346 21.1473 16.549C21.2399 15.7907 21.3649 15.1367 21.458 14.4283C21.5834 13.4616 21.55 12.5072 20.3548 12.7124C20.1499 12.7645 20.0939 12.781 20.0656 12.986C19.9165 13.9409 19.7855 14.9274 19.649 15.8614C19.619 16.0843 19.5772 16.3172 19.5343 16.5237C19.5232 16.5763 19.5171 16.6233 19.5076 16.6582C19.4954 16.6994 19.4671 16.7422 19.4401 16.6998C19.248 16.3488 18.3444 16.4073 17.9673 16.6649C17.7781 16.7969 17.7392 16.8678 17.8164 16.4655C17.83 16.3802 17.8433 16.295 17.8562 16.2099C18.0433 14.9776 18.1694 13.7654 18.4032 12.5164ZM15.8231 10.3999C15.6212 9.70889 16.2223 9.0259 16.8953 9.00215C17.8075 8.94099 18.0593 10.2 17.1261 10.771C16.5857 11.0192 16.0176 10.9665 15.8231 10.3999Z" fill="white"/>
</svg>

<svg xmlns="http://www.w3.org/2000/svg" width="40" height="40" fill="none" viewBox="0 0 40 40"><rect width="40" height="40" fill="#e9232a" rx="8"/><path fill="#fff" d="M8.8 30.766c-.457-.238-.816-.447-.8-.464.059-.059 2.242-.526 3.767-.807 3.3-.607 7.223-1.093 11.13-1.378 1.61-.118 7.431-.122 8.441-.006l.662.076-.746.012c-1.325.02-4.363.234-6.743.473-4.505.454-9.514 1.29-13.137 2.193-.74.184-1.436.335-1.545.335-.11 0-.573-.195-1.03-.434m6.298-4.55c-.067-.188.216-.272.34-.326.554-.238.945-.627 1.075-1.072.063-.212.253-1.414.423-2.67s.323-2.228.34-2.285c.012-.042.046-.192.225-.208.459-.004.799.002 1.269.002.26-.026.208.26.188.442-.02.23-.082.676-.154 1.218l-.292 2.2c-.163 1.23-.254 1.61-.536 2.244-.336.754-.849 1.192-1.78 1.504-.187.059-.726.243-.784.08-.122-.392-.208-.732-.314-1.13m10.684-.413c-.62-.251-.59-1.221.06-1.62.411-.251.99-.208 1.286.09.732.735-.344 1.936-1.346 1.53m-4.686-.58c-1.823-.312-1.81-2.493-1.402-3.74.511-1.442 1.757-1.861 2.781-1.898.864-.03 2.063.132 2.363.318.084.052.044.552-.188 2.406-.16 1.287-.337 2.394-.391 2.46-.289.349-2.222.627-3.163.454m1.59-1.726c.196-.73.278-1.39.418-2.16-.017-.266-.464-.268-.578-.269-.591 0-.941.334-1.126 1.075-.254 1.017.011 1.583.741 1.583.231-.022.472-.009.545-.229m-13.32 1.139c.498-1.222 2.499-5.596 2.98-6.501.09-.226.33-.27.493-.286.47-.022.877-.016 1.29-.013.427.003.433.153.488.471.067.317.898 5.295 1.086 6.49.024.199.072.26-.185.261-.357.001-1.215.048-1.507.026a.19.19 0 0 1-.168-.143 6 6 0 0 1-.077-.577l-.053-.596h-2.139l-.233.573a8 8 0 0 1-.242.538c-.048.122-.118.178-.224.201-.262-.002-1.19.032-1.538.002-.173-.08-.017-.335.029-.446m4.158-2.525a62 62 0 0 0-.283-2.226c-.012-.026-.018-.018-.031-.002-.126.19-.81 1.874-.926 2.265-.014.054.02.074.071.07.174-.013.882-.026 1.098-.034.061-.005.068-.027.071-.073m12.341.806c.028-.217.088-.805.135-1.308.046-.502.12-1.287.165-1.744a42 42 0 0 0 .076-.86c.026-.159.217-.177.343-.179.419.005.813-.02 1.19.015.178.018.252.058.253.164-.17.874-.78 3.891-.827 4.078-.041.161-.057.209-.302.223-.3-.005-.551.01-.855.01-.175-.003-.222-.055-.178-.399m-8.452-4.482c0-.533.342-.94.77-1.11.37-.13.784-.13 1.005.123.392.457.135 1.132-.323 1.484-.586.404-1.442.165-1.452-.497m10.5-1.124c-.127-.285-.538-1.186-.912-2-.374-.816-.66-1.535-.636-1.598s.44-.583.926-1.155l.79-.93c.051-.063.11-.14.182-.14.476.002.97.03 1.424.026.338-.003.508-.025.257.23-.16.2-.477.566-.84.967-.523.58-.95 1.069-.95 1.088s.392.884.871 1.923c.377.816.688 1.546.793 1.85.045.104.006.193-.09.217-.127.03-.355.041-.748.041h-.589c-.144.016-.25-.01-.305-.133zm-17.614-.607c-.53-.265-.78-.6-.826-1.106-.027-.302.466-4.373.685-5.668.053-.304.076-.321.367-.321h.571c.3 0 .573-.005.745.005.235.003.192.152.174.33-.04.396-.166 1.256-.324 2.363-.28 1.965-.351 2.658-.284 2.765.078.125.277.145 1.597.165l1.18.018c.282-.016.34.053.312.307-.069.42-.106.753-.175 1.13-.047.233-.198.172-.433.187l-1.38.019c-1.77.022-1.779.021-2.21-.194m13.611.15c-.018-.034.032-.51.11-1.058s.241-1.726.363-2.616c.344-2.529.458-3.29.506-3.582.05-.34.05-.321.383-.321h.526c.206 0 .366-.003.49.001.473.015.413-.025.294.71-.046.277-.196 1.5-.334 2.528-.349 2.587-.578 4.174-.62 4.297-.039.115-1.66.154-1.718.042m-8.997-.196c.22-1.85.43-3.248.673-4.97.018-.205.22-.23.456-.23.268 0 .54-.003.796.005.495.002.625.069.574.4-.22 1.616-.49 3.058-.775 4.701-.053.278-.118.27-.383.27-.308.001-.855.011-1.135.004-.163-.03-.2-.048-.206-.18m3.491-4.14c.136-.716.23-.827.427-.957.243-.16 2.04-.327 2.66-.247q.13.019.248.047c1.818.433 1.535 2.499 1.417 3.449a54 54 0 0 1-.272 1.837c-.043.179-.082.187-.905.187-.276 0-.42-.01-.578-.024-.255-.017-.278-.074-.253-.26.093-.758.218-1.412.311-2.12.125-.967.092-1.922-1.103-1.717-.205.053-.261.069-.29.274-.149.955-.28 1.941-.416 2.875a10 10 0 0 1-.115.663c-.01.052-.017.1-.026.134-.013.041-.04.084-.068.042-.192-.351-1.096-.293-1.473-.035-.189.132-.228.203-.15-.2l.04-.255c.186-1.232.312-2.445.546-3.694m-2.58-2.117c-.202-.691.4-1.374 1.072-1.398.913-.061 1.164 1.198.231 1.769-.54.248-1.108.195-1.303-.371"/></svg>
